X:1
T:The Ninety-Nine March
C:Randal Bays
R:march
Q:1/4=95
I:abc2nwc
M:4/4
L:1/8
K:G
B/2c/2|BE GA B3/2c/2 BG|A3/2B/2 AF BE GB/2c/2|
BE GA B3/2c/2 BG|AF BF E2E:|
|: (3B/2c/2d/2|eB Bd/2e/2 f/2{g}f/2e d3/2B/2|
d3/2e/2 dB/2{c}B/2 AF AB/2d/2|eB Bd/2e/2 f/2{g}f/2e dB|
dB/2{c}B/2 AF E2E:|
